X: 2
T: Goldfield, The
M: 6/8
L: 1/8
R: jig
K: Dmaj
|: dAF GAB | AFD ~E3 | DED DFA | d2 e f2 e |
dAF GAB | AFE ~E3 | DED FEF |[1 D3 D3 :|[2 D3 D2 A ||
BAA FAA | dAA FAA | BAA AFA | d3 d2 A |
BAA FAA | dAA F2 D | ~E3 FEF | D3 D2 A |
B2 A FAA | dAA FAA | BAA AFA | d2 e f2 e |
ded cdc | ~B3 ABA | Bcd efe | d2 e f2 e |]
